X: 261
T:The Rogue's March
% Nottingham Music Database
S:Trad, arr Phil Rowe
M:6/8
K:G
"G"B2B Bcd|"C"e2e e3|"G"d2d -d2e|"D"d2c B2A|"G"B2B Bcd|"C"e2e e3|"G"def gdB|\
"D7"A3 "G"G3::
"G"g3 "D"f3|"C"e3 "D7"def|"G"g3 "D"f3|"C"e3 "D7"d2c|"G"B2B Bcd|"C"e2e e3|\
"G"def gdB|"D7"A3 "G"G3:|<end>
<start>
